X:1
T:Der ehlich Stand
T:Ludwig Senfl
T:Source : DDT 34---Leipzig---Breitkopf & Härtel---J.Wolf---1908. First print : Newe Deudsche Geistliche Gesenge---Wittemberg---G.Rhau---1544. Editor : André Vierendeels (06/08/17). 
T:Notes : Original clefs : C1, C3, C3, F4 Original note values have been halved Editorial accidentals above the staff 
T:Der ehlich Stand
T:©
T:©
T:©
T:©
C:Ludwig Senfl
Z:©
%%score [ 1 [ 2 3 ] 4 ]
L:1/8
Q:1/4=120
M:2/2
K:F
V:1 treble nm="Soprano" snm="S"
V:2 treble-8 nm="Tenor 1" snm="T 1"
V:3 treble-8 nm="Tenor 2" snm="T 2"
V:4 treble-8 nm="Tenor 3" snm="T 3"
V:1
 z8 | z8 | F4 A3 B | c2 d4 c2 | d2 f2 e2 d2- | dc c4 B2 | c8 | z2 B2 d3 e | f2 d2 c4 | B4 A2 G2- | %10
w: ||Der eh- lich|Stand ist _|bil- * * *|* * * ge-|nannt|ein Sa- *|* kra- ment,|solchs ich _|
 GF F4 E2 | F4 z2 F2 | G2 B2 A4 | z4 z2 G2 | A3 B c4- | c4 z4 | z2 c2 d2 f2 | e8- | e8 | z4 z2 d2 | %20
w: _ _ _ be-|kennt- An-|fangs mein'r Eh',|dar|auf ich steh|_|und geb Gott|Preis|_|mit|
 e3 f g4- | g4 z4 | z2 g2 fedc | B2 c4 B2 | c4 z4 | g4 e4 | c4 c4- | c4 z4 | f4 d4 | B4 B4- | %30
w: höch- sten Fleisch,|_|mit höch- * * *|* * stem|Fleisz,|von Herz|und Gier,|_|drum dasz|er mir|
 B4 z4 | d4 B4 | G4 G4- | G4 z4 | c4 A4 | F4 F2 f2 | f2 d2 c4 | A4 B4 | G4 F2 A2 | G2 F4 E2 | F8 |] %41
w: _|nach b'schloss-|nem Rat|_|be- schaf-|fen hat mein|hold- se- li-|ge Ja-|ko- * *||be.|
V:2
 F4 A3 B | c2 d4 c2 | d6 cB | A2 F2 G2 A2 | B4 z4 | z2 f2 g4 | e3 f g2 a2 | d3 e f2 d2 | %8
w: Der eh- lich|Stand [ist bil-||* * lig ge-|nannt,]|ist bil-|* * * lig|ge- * * nannt|
 z2 d2 e2 f2 | g2 d2 e4 | f2 B2 c2 c2 | A4 z2 c2 | d2 B2 f2 f2 | e4 d3 e | f4 z2 c2- | cd e3 f g2 | %16
w: ein Sa- *|kra- * *|ment, solchs ich be-|kennt An-|* fangs mei- ner|E- * *|he, dar|_ _ auf- * *|
 c4 f3 g | a2 g2 a4 | g2 c2 e3 f | g2 G2 A2 B2 | c3 B/A/ G2 c2 | G2 c4 B2 | c4 z2 d2 | d2 e2 d4 | %24
w: ich steh _|_ _ _|* und geb _|_ Gott Preis, und|geb _ _ _ _|_ _ Gott|Preis, mit|höch- * stem|
 c2 g2 e2 c2 | c4 z2 g2 | a2 e2 a4 | z4 a4 | f6 g2 | d2 g2 f2 f2 | d2 g4 fe | d8 | z2 g2 e3 c | %33
w: Fleisz, von Herz und|Gier, von|Herz und Gier,|drum|dasz er|mir, [drum dasz er|mir _ _ _|_|nach b'scloss- nem|
 c2 g2 e4 | c4 c4 | z2 f2 d4 | B2 B2 z2 c2- | c2 d2 G2 g2 | e4 f4 | d4 c4 | c8 |] %41
w: Rat, nach b'schloss-|nem Rat|be- schaf-|fen hat mein|_ hold- se- *|li- ge|Ja- ko-|be.|
V:3
 z8 | z8 | z4 f4 | f4 e4 | d4 g4 | c4 d4 | c8 | z4 B4 | B4 A4 | G4 c4 | F4 G4 | F8 | z4 F4 | %13
w: ||Der|eh- lich|Stand ist|bil- lig|g'nannt|ein|Sa- kra-|ment, solchs|ist be-|kennt|An-|
 G4 B4 | A8 | z4 G4 | A4 B4 | c8 | z4 c4 | d4 f4 | e8 | z4 d4 | e4 f4 | g8 | z4 g4 | e4 c4 | c8 | %27
w: fangs mein'r|Eh',|dar|auf ich|steh|und|geb Gott|Preis|mit|höch- stem|Fleisz,|von|Herz und|Gier,|
 z4 f4 | d4 B4 | B8 | z4 d4 | B4 G4 | G8 | z4 c4 | A4 F4 | F8 | z4 f4 | f4 d4 | c4 A4 | B4 G4 | %40
w: drum|dasz er|mir|nach|b'schloss- nem|Rat,|be-|schaf- fen|hat|mein|hold- se-|li- ge|Ja- ko-|
 F8 |] %41
w: be.|
V:4
 z4 F4 | F4 E4 | D8 | z8 | d4 G4 | A4 G4 | z2 C2 E2 F2 | G4 z4 | z8 | G4 C4 | D4 C4 | z2 c2 F2 A2 | %12
w: Der|eh- lich|Stand||ist bil-|lig g'nannt|ein Sa- kra-|ment,||solchs ich|be- kennt,|solchs ich be-|
 G4 z2 F2 | CDEF G2 G2 | F8 | z2 C3 D E2 | F4 D4 | C2 c2 A3 B |"^-natural" cBAG A4 | %19
w: kennt An-|fang _ _ _ mei- ner|Eh',|dar _ _|auf ich|steh und geb _|_ _ _ _ _|
 G3 F/E/ D2 D2 | C3 D E2 C2 | E3 F G4 | C2 c2 dcBA | G2 C2 G4 | C8 | z4 c4 | A4 F4 | F8 | %28
w: * * * * Gott|Preis _ _ _|_ _ _|* mit hö- * * *|* * stem|Fleisz,|von|Herz und|Gier,|
 z4 z2 G2- | GABc d4 | B4 G4 | G4 z2 G2 | E4 C4 | C8 | z4 F4 | D4 B,4 | B,4 z2 F2 | F2 D2 G4 | %38
w: drum|_ _ _ _ _|dasz er|mir nach|b'schloss- nem|Rat,|be-|schaf- fen|hat mein|hold- se- li-|
 C4 D4 | B,4 C4 | F8 |] %41
w: * ge|Ja- ko-|be.|

